X:195
T: Der Tod als Erloeser
N: Q0120
O: Mitteleuropa, Deutschland (BRD) , Baden, Zell am Wiesental
N: Grundton in der zweigestrichenen Oktave.
R: Ballade, Klage am Grab, Geist, Tod
M: 6/8
L: 1/16
K: C
G,2 | C4E,2A,4G,2 | G,2F,2z6
B,2 | D4F,2A,4G,2 | E,6z4
G,G, | E4D2C4B,2 | B,2A,2z6
CA, | G,4C2E4D2 | C6z4

